icons/vk.svg

<svg width="24" height="24" viewBox="0 0 24 24" fill="none" xmlns="http://www.w3.org/2000/svg">
<path fill-rule="evenodd" clip-rule="evenodd" d="M20.4472 5.10579C20.9412 5.35278 21.1414 5.95345 20.8944 6.44743C20.3688 7.4987 19.5847 8.80585 18.6644 9.98916C18.105 10.7083 17.4663 11.4198 16.7758 12.0002C17.4663 12.5806 18.105 13.2921 18.6644 14.0113C19.5847 15.1946 20.3688 16.5017 20.8944 17.553C21.1414 18.047 20.9412 18.6477 20.4472 18.8946C19.9532 19.1416 19.3526 18.9414 19.1056 18.4474C18.6312 17.4987 17.9153 16.3058 17.0857 15.2392C16.3079 14.2392 15.4942 13.4338 14.7479 13.0002H13V18.0002C13 18.3035 12.8623 18.5905 12.6257 18.7803C12.3891 18.9701 12.0792 19.0422 11.7831 18.9764C9.20907 18.4044 7.02094 16.575 5.37377 14.269C3.71918 11.9525 2.54045 9.06284 2.01614 6.1791C1.91734 5.63573 2.27774 5.11514 2.82112 5.01635C3.3645 4.91755 3.88508 5.27796 3.98388 5.82133C4.45956 8.4376 5.53083 11.0479 7.00124 13.1065C8.16327 14.7333 9.53183 15.9593 11 16.617V7.00022H10C9.44772 7.00022 9.00001 6.5525 9.00001 6.00022C9.00001 5.44793 9.44772 5.00022 10 5.00022H12C12.5523 5.00022 13 5.44793 13 6.00022V11.0002H14.7479C15.4942 10.5667 16.3079 9.7612 17.0857 8.76128C17.9153 7.69459 18.6312 6.50174 19.1056 5.55301C19.3526 5.05903 19.9532 4.8588 20.4472 5.10579Z" fill="#2C3E50"/>
</svg>

<svg
  width="24"
  height="24"
  viewBox="0 0 24 24"
  xmlns="http://www.w3.org/2000/svg"
>
  <path
    fill-rule="evenodd"
    clip-rule="evenodd"
    d="M20.447 5.106a1 1 0 0 1 .447 1.341 22.122 22.122 0 0 1-2.23 3.542c-.559.72-1.198 1.43-1.888 2.011.69.58 1.329 1.292 1.888 2.011a22.12 22.12 0 0 1 2.23 3.542 1 1 0 1 1-1.788.894 20.128 20.128 0 0 0-2.02-3.208c-.778-1-1.592-1.805-2.338-2.239H13v5a1 1 0 0 1-1.217.976c-2.574-.572-4.762-2.401-6.41-4.707-1.654-2.316-2.833-5.206-3.357-8.09a1 1 0 1 1 1.968-.358C4.46 8.438 5.53 11.048 7 13.107c1.162 1.626 2.53 2.852 3.999 3.51V7h-1a1 1 0 0 1 0-2h2a1 1 0 0 1 1 1v5h1.748c.746-.433 1.56-1.239 2.338-2.239a20.131 20.131 0 0 0 2.02-3.208 1 1 0 0 1 1.341-.447z"
  />
</svg>
